X:5834
T:Gan Ainm
R:slip jig
S:
H:
N:
D:Irish Dancing Tape (P. Acc)
Z:Adrian Scahill
M:9/8
L:1/8
K:D
F2A AFA AFA|FGB BGB BGB|F2A AFA ABc|d2B AFD E2A,:||\
:d3 AFE DF/2G/2A|Bcd efg f2e|1 d2B AFE DF/2G/2A|Bcd AFD E2D:|2 f/2g/2ag fed cBA|Bcd edc dAG||
